X: 35
T: Missa Cum iocunditate / Agnus Dei
N: Derived from Rue1007e-Missa_Cum_iocunditate-Agnus.krn
C: Pierre de la Rue
%%abc-version 2.0
%%abcx-abcm2ps-target-version 5.9.1 (29 Sep 2008)
%%abc-creator hum2abc beta
%%abcx-conversion-date 2019/02/17 08:01:10
%%abc-edited-by Jesse Rodin
%%abc-edited-by Jesse Rodin; Victoria Chang 2011/04/03
%%abcx-initial-encoding-date 2011/04/03/
%%humdrum-veritas 1919779899
%%humdrum-veritas-data 361498569
%%linebreak <none>
%%barnumbers 0
L: 1/4
M: 3/1
Q: 1/2=120
%%staves [1 2 3 4]
V: 1 clef=treble
V: 2 clef=treble-8
V: 3 clef=treble-8
V: 4 clef=bass
K: C
[V:1] G8B4- | 
[V:2] d8B4 | 
[V:3] G12- | 
[V:4] G,,12- | 
[V:1] B4c8 | 
[V:2] d4e8 | 
[V:3] G4E8 | 
[V:4] G,,4C,8 | 
[V:1] B2G4^FEF4 | 
[V:2] d4d8 | 
[V:3] G4A8 | 
[V:4] G,,4D,8 | 
[V:1] G4A2B2c4 | 
[V:2] z12 | 
[V:3] G4z2G4E2 | 
[V:4] G,,2C,4B,,2A,,4 | 
[V:1] B4z2d4d2 | 
[V:2] z2g4g2f2d2 | 
[V:3] G8A4- | 
[V:4] G,,8D,4 | 
[V:1] c2A2B8 | 
[V:2] e2f2g4d4- | 
[V:3] A4G4z4 | 
[V:4] z4z2G,4G,2 | 
[V:1] A4z4z4 | 
[V:2] d4z2g4g2 | 
[V:3] z4G2E2G4 | 
[V:4] F,2D,2E,8 | 
[V:1] (3:2:7d4d2c2A2c2d2B4 | 
[V:2] f2d2e4z2d2- | 
[V:3] A8G4 | 
[V:4] D,4z4(3:2:2G,4G,2 | 
[V:1] (3:2:7A4A2G4E2F4E D | 
[V:2] d2d2G4A4 | 
[V:3] z2d4B2d4 | 
[V:4] (3:2:5F,2D,2F,2G,2E,4D,4 | 
[V:1] C4z2c2B2c2 | 
[V:2] z2c2B2c2G2c2 | 
[V:3] e12- | 
[V:4] z2A,2G,2A,2E,2A,2 | 
[V:1] G2c2B2c2A2B2- | 
[V:2] B2c2G2A4G2 | 
[V:3] e8d4 | 
[V:4] G,2A,2E,2A,2D,2G,2- | 
[V:1] BAA4G2A2F2 | 
[V:2] A4B4A2d2 | 
[V:3] d12 | 
[V:4] G,2F,2G,4D,4 | 
[V:1] G2A2D2A2B2c2 | 
[V:2] e2f4f2e2c2 | 
[V:3] z12 | 
[V:4] z2D,4F,2G,2A,2 | 
[V:1] A2B3Ad4^c2 | 
[V:2] f2g4a3ge2 | 
[V:3] d2B2d4e4 | 
[V:4] D,2G,3F,D,2A,4 | 
[V:1] d4z2d4B2 | 
[V:2] f4fedcB4 | 
[V:3] d12 | 
[V:4] D,8z4 | 
[V:1] c2B2G2d4B2 | 
[V:2] z2B4G2A2F2 | 
[V:3] z2d2B4d4 | 
[V:4] z2G,4G,2F,2D,2 | 
[V:1] c2B2G4z2A2 | 
[V:2] G2B4G2A2F2 | 
[V:3] e8d4 | 
[V:4] C,2G,4E,2F,2D,2 | 
[V:1] c2B2G2B2A2F2 | 
[V:2] G2B4G2A2B2 | 
[V:3] z2d2B4d4 | 
[V:4] C,2G,4E,2F,2D,2 | 
[V:1] G2C2G4F3D | 
[V:2] E2A2G2E2z2B2 | 
[V:3] e8d4 | 
[V:4] C,8z2D,2 | 
[V:1] E2D2F2G2A2B2 | 
[V:2] c2d3cB2A2G2- | 
[V:3] z2d4B2d4 | 
[V:4] A,,2D,4E,2F,2G,2 | 
[V:1] c3BAGG4^F2 | 
[V:2] G2c3BAGA4 | 
[V:3] e4d8 | 
[V:4] C,4D,8 | 
[V:1] G12- | 
[V:2] G4z2B4B2 | 
[V:3] z2d2B2d2e4 | 
[V:4] G,,4z2G,2G,2E,2- | 
[V:1] G12- | 
[V:2] c2c2B4B4- | 
[V:3] e4d8 | 
[V:4] E,2C,2G,8 | 
[V:1] G12 ||  
[V:2] B12 ||  
[V:3] d12 ||  
[V:4] G,,12 ||  
[V:1] [M:2/1]A8- | 
[V:2] [M:2/1]A8 | 
[V:3] [M:2/1]d8- | 
[V:4] [M:2/1]D,6E,2 | 
[V:1] A4G4 | 
[V:2] A4d4- | 
[V:3] d4B4 | 
[V:4] F,4G,4 | 
[V:1] F6ED | 
[V:2] d2cBA4- | 
[V:3] d8 | 
[V:4] D,6C,B,, | 
[V:1] C4c4- | 
[V:2] A2GFE4 | 
[V:3] e8- | 
[V:4] A,,8 | 
[V:1] c4B4 | 
[V:2] z8 | 
[V:3] e4d4 | 
[V:4] z2A,4G,2 | 
[V:1] A6GF | 
[V:2] F3GA2B2 | 
[V:3] d8 | 
[V:4] F,2E,2D,4 | 
[V:1] E3FG2A2- | 
[V:2] c3de4 | 
[V:3] G6E2 | 
[V:4] C,8 | 
[V:1] AGG4^F2 | 
[V:2] d8 | 
[V:3] G4A4 | 
[V:4] z4D,4 | 
[V:1] G4z2G2- | 
[V:2] B4e4- | 
[V:3] G8 | 
[V:4] E,6D,C, | 
[V:1] G2A2G2A2- | 
[V:2] e2c2c4 | 
[V:3] z8 | 
[V:4] C,2F,2E,2F,2- | 
[V:1] ABc4BA | 
[V:2] z2e4f2 | 
[V:3] z8 | 
[V:4] F,2G,2A,4 | 
[V:1] B2G2d4- | 
[V:2] g8 | 
[V:3] d8 | 
[V:4] G,8- | 
[V:1] d2cBA4 | 
[V:2] G4A4 | 
[V:3] B4d4 | 
[V:4] G,4F,4 | 
[V:1] G3AB2c2- | 
[V:2] B4B2A2 | 
[V:3] e8- | 
[V:4] E,3F,G,2A,2- | 
[V:1] c2BAc2B2- | 
[V:2] c4G4 | 
[V:3] e8 | 
[V:4] A,2G,F,E,3F, | 
[V:1] B2A4G2 | 
[V:2] G2A2B4 | 
[V:3] d8 | 
[V:4] G,2D,2G,4 | 
[V:1] A8 | 
[V:2] A4z2f2- | 
[V:3] z8 | 
[V:4] D,8 | 
[V:1] z8 | 
[V:2] f2edf2e2- | 
[V:3] d6B2 | 
[V:4] z2G,2F,2G,2- | 
[V:1] z8 | 
[V:2] e2d4^c2 | 
[V:3] d4e4 | 
[V:4] G,F,E,D,A,4 | 
[V:1] z8 | 
[V:2] d8 | 
[V:3] d4z2d2- | 
[V:4] D,8 | 
[V:1] z8 | 
[V:2] z8 | 
[V:3] d2B2d2e2- | 
[V:4] z2G,2F,2G,2- | 
[V:1] z8 | 
[V:2] z8 | 
[V:3] e2d4^c2 | 
[V:4] G,F,E,D,E,4 | 
[V:1] z4A4- | 
[V:2] f8 | 
[V:3] d8- | 
[V:4] D,8 | 
[V:1] A4A4 | 
[V:2] f4f4 | 
[V:3] d8- | 
[V:4] D,4D,4 | 
[V:1] B4B4 | 
[V:2] g4g4 | 
[V:3] d8 | 
[V:4] G,8 | 
[V:1] c6BA | 
[V:2] e6dc | 
[V:3] z8 | 
[V:4] A,6G,F, | 
[V:1] B2A4^G2 | 
[V:2] dcBAB4 | 
[V:3] z8 | 
[V:4] G,2C,2D,2E,2 | 
[V:1] A2F2G2E2 | 
[V:2] A4G2A2- | 
[V:3] z8 | 
[V:4] F,2D,2E,2C,2 | 
[V:1] F2G2E2G2- | 
[V:2] A2G3ABc | 
[V:3] z8 | 
[V:4] D,2E,2C,4 | 
[V:1] G2FED4 | 
[V:2] d2c4B2 | 
[V:3] G8- | 
[V:4] G,,8 | 
[V:1] C4z2G2- | 
[V:2] c8- | 
[V:3] G8 | 
[V:4] C,8 | 
[V:1] G2E2G2A2- | 
[V:2] c8 | 
[V:3] E8- | 
[V:4] z2C,4A,,2 | 
[V:1] A2G3FED | 
[V:2] z8 | 
[V:3] E8 | 
[V:4] C,3D,E,F,G,2- | 
[V:1] E2D4C2 | 
[V:2] z4G4- | 
[V:3] G8 | 
[V:4] G,F,E,D,E,4 | 
[V:1] D2B,2A,4 | 
[V:2] G2^FE^F4 | 
[V:3] A6G2 | 
[V:4] D,8 | 
[V:1] B,8 | 
[V:2] G3ABcd2- | 
[V:3] G4z2G2- | 
[V:4] G,,8 | 
[V:1] z8 | 
[V:2] d2e2B2e2- | 
[V:3] G2E2G2A2- | 
[V:4] z2C,2G,,2C,2- | 
[V:1] z8 | 
[V:2] edcBc4 | 
[V:3] A2G4^F2 | 
[V:4] C,B,,A,,G,,A,,4 | 
[V:1] z8 | 
[V:2] B8 | 
[V:3] G8- | 
[V:4] G,,8 | 
[V:1] [M:3/1]D8D4 | 
[V:2] [M:3/1]B6c2d4 | 
[V:3] G12 | 
[V:4] [M:3/1]G,,6A,,2B,,4 | 
[V:1] E4C4E4 | 
[V:2] G4A8 | 
[V:3] z12 | 
[V:4] C,4A,,4C,4 | 
[V:1] F4D4F4 | 
[V:2] A4B8 | 
[V:3] z12 | 
[V:4] D,4B,,4D,4 | 
[V:1] G8G4 | 
[V:2] B4c8 | 
[V:3] [M:3/1]G4E4G4 | 
[V:4] E,4C,4E,4 | 
[V:1] F8E2D2 | 
[V:2] c4F8 | 
[V:3] A12- | 
[V:4] F,4D,8 | 
[V:1] E8z4 | 
[V:2] c8z4 | 
[V:3] A4G8 | 
[V:4] C,8z4 | 
[V:1] G8G4 | 
[V:2] e8e4 | 
[V:3] G4E4G4 | 
[V:4] C,6D,2E,4 | 
[V:1] F6G2A4 | 
[V:2] c4d8 | 
[V:3] A8A4 | 
[V:4] F,4D,4F,4 | 
[V:1] B4G4B4 | 
[V:2] d4e8 | 
[V:3] G12 | 
[V:4] G,4E,4G,4 | 
[V:1] c4A4c4 | 
[V:2] e4f8 | 
[V:3] z12 | 
[V:4] A,4F,4A,4 | 
[V:1] d8B4 | 
[V:2] f4g6f2 | 
[V:3] d4B4d4 | 
[V:4] B,4G,4B,4 | 
[V:1] G4c8 | 
[V:2] e2d2c8 | 
[V:3] e12- | 
[V:4] C4A,8 | 
[V:1] B6c2d4 | 
[V:2] z4g4f4 | 
[V:3] e4d8 | 
[V:4] G,8D,4 | 
[V:1] G4A6G2 | 
[V:2] g4f4g4 | 
[V:3] d12- | 
[V:4] G,4D,4G,4- | 
[V:1] G8^F4 | 
[V:2] G4A8 | 
[V:3] d12 | 
[V:4] G,4D,8 | 
[V:1] G12 ||  
[V:2] G12 ||  
[V:3] d12 ||  
[V:4] G,,12 ||  



